!!!COM:	Agricola, Alexander
!!!CDT:	~1446-1506/08/15
!!!OPR:	Missa In myne zin
!!!ONM:	4
!!!ONB: Fourth section (no Kyrie section)
!!!OTL:	Agnus Dei
!!!AGN:	Mass; Agnus Dei
!!!SCT:	Agr1001e
!!!SCA:	Agr1001e
!!!voices:	4
!!!voices-OPR:	4
**kern	**kern	**kern	**kern
*staff4	*staff3	*staff2	*staff1
*Ivox	*Ivox	*Ivox	*Ivox
*I"Bassus	*I"Tenor	*I"Contratenor	*I"Superius
*I'B	*I'T	*I'Ct	*I'S
*>[A,B,C,D]	*>[A,B,C,D]	*>[A,B,C,D]	*>[A,B,C,D]
*>A	*>A	*>A	*>A
*clefF4	*clefGv2	*clefGv2	*clefG2
*k[b-]	*k[]	*k[]	*k[]
*M3/1	*M3/1	*M3/1	*M3/1
*met(O)	*met(O)	*met(O)	*met(O)
!!section: Agnus Dei I
!!!OMD: Agnus Dei I
=1-	=1-	=1-	=1-
0.r	0.r	0d	0.d
.	.	1f	.
=2	=2	=2	=2
0.r	0.r	2.f	0.a
.	.	4e	.
.	.	2c	.
.	.	2.d	.
.	.	2c	.
.	.	8BL	.
.	.	8AJ	.
=3	=3	=3	=3
0.r	0.r	2G	1b
.	.	2d	.
.	.	2e	0cc
.	.	2f	.
.	.	1e	.
=4	=4	=4	=4
0.r	0.r	1d	0dd
.	.	1r	.
.	.	1d	1r
=5	=5	=5	=5
0.r	0.r	2B	1.dd
.	.	2G	.
.	.	4.B	.
.	.	8c	.
.	.	2A	2cc
.	.	1G	1b
=6	=6	=6	=6
0.r	0.r	1d	2.a
.	.	.	8gL
.	.	.	8aJ
.	.	2d	2b-i
.	.	2c	1a
.	.	1B-i	.
.	.	.	2g
=7	=7	=7	=7
1.D	0.r	2.A	1a
.	.	8GL	.
.	.	8AJ	.
.	.	2B-i	1r
2C	.	1A	.
1BB-	.	.	1r
.	.	2G	.
=8	=8	=8	=8
2.AA	0.r	1A	0.r
4BB-	.	.	.
2C	.	1r	.
2.D	.	.	.
.	.	1A	.
4E	.	.	.
2F	.	.	.
=9	=9	=9	=9
2E	0.r	2G	0.r
1A	.	4A	.
.	.	2c	.
.	.	8BL	.
.	.	8AJ	.
2G	.	2B	.
2.F	.	2A	.
.	.	2d	.
8EL	.	.	.
8DJ	.	.	.
=10	=10	=10	=10
2C	0.r	2e	0.r
2D	.	2.f	.
2F	.	.	.
.	.	4e	.
2G	.	1d	.
1E	.	.	.
.	.	2c#i	.
=11	=11	=11	=11
0D	0.r	2d	1r
.	.	2B	.
.	.	2A	2a
.	.	4d	2b
.	.	2d	.
2r	.	.	2a
.	.	4c	.
2D	.	2f	4dd
.	.	.	[4dd
=12	=12	=12	=12
2E	0.r	4r	4dd]
.	.	4e	4cc
2D	.	4f	1dd
.	.	2d	.
2.G	.	.	.
.	.	2B	.
.	.	.	2g
8FL	.	4c	.
8EJ	.	.	.
2D	.	2d	2f
2E	.	[2G	2g
=13	=13	=13	=13
2C	0.r	2G]	2.e
2AA	.	2A	.
.	.	.	2f
1D	.	2D	.
.	.	.	4e
.	.	2F	1d
1AA	.	1E	.
.	.	.	2c#i
=14	=14	=14	=14
1D	0.D	1D	1d
1r	.	1A	1r
1r	.	1B	1dd
=15	=15	=15	=15
0.AA	0.A	2.c	1cc
.	.	4d	.
.	.	[0e	2.cc
.	.	.	4b
.	.	.	1a
=16	=16	=16	=16
0E	1.B	0.e]	1g
.	.	.	2g
.	1.c	.	1g
1E	.	.	.
.	.	.	4f
.	.	.	4e
=17	=17	=17	=17
1D	0.d	1.A	1f
1F	.	.	1a
.	.	2.d	.
1G	.	.	1b
.	.	4c	.
.	.	2B	.
=18	=18	=18	=18
2A	1.c	1A	2.cc
1F	.	.	.
.	.	.	4b
.	.	1r	4a
.	.	.	4g
2G	2B	.	1g
1D	1A	1d	.
.	.	.	2f#i
=19	=19	=19	=19
1GG	0.G	1.d	0g
1r	.	.	.
.	.	2c	.
1G	.	1B	1r
=20	=20	=20	=20
2F	0.r	2.A	0.r
2D	.	.	.
.	.	8GL	.
.	.	8AJ	.
2G	.	4B	.
.	.	4A	.
2F	.	1d	.
1E	.	.	.
.	.	2c#i	.
=21	=21	=21	=21
1D	0.d	2d	0f
.	.	2A	.
2r	.	2B-	.
2.D	.	2A	.
.	.	2.F	1f
4C	.	.	.
2BB-	.	.	.
.	.	8EL	.
.	.	8DJ	.
=22	=22	=22	=22
1AA	2c	2E	1cc
.	2A	2F	.
2GG	2d	2G	2b
2AA	2c	2E	1a
1E	1B	2r	.
.	.	[2e	2g#i
=23	=23	=23	=23
1AA	0.A	2e]	2a
.	.	2f	2.cc
2AA	.	2e	.
.	.	.	4b
2.D	.	2.f	4a
.	.	.	4g
.	.	.	1f
4C	.	4e	.
2D	.	2d	.
=24	=24	=24	=24
1AA	0.r	2c	2e
.	.	2A	2c
2r	.	2B	2d
2C	.	4c	2e
.	.	4e	.
2D	.	4d	4f
.	.	4c	2a
2E-	.	2B-i	.
.	.	.	4g
=25	=25	=25	=25
2F	1r	2A	2a
1C	.	2G	2.cc
.	2r	1E	.
.	.	.	4b
2E	2G	.	2g
1D	2A	1F	2f
.	2B	.	2d
=26	=26	=26	=26
2C	0c	2G	2e
2.F	.	2F	2.a
.	.	1A	.
4E	.	.	4g
2F	.	.	1f
1C	1c	1G	.
.	.	.	2e
=27	=27	=27	=27
2D	1.A	2F	4f
.	.	.	4d
2C	.	2c	2e
2D	.	2A	2f
2GG	2G	2B-	2g
2AA	2E	1A	2c
2FF	2F	.	[2c
=28	=28	=28	=28
1GG	1D	1G	2c]
.	.	.	2B
2G	0C	2E	1c
2.E	.	1G	.
.	.	.	1g
4F	.	.	.
2G	.	[2E	.
=29	=29	=29	=29
0.C	1G	2E]	2.e
.	.	1c	.
.	.	.	4f
.	2.E	.	2g
.	.	2c	2a
.	4F	.	.
.	2G	1c	2g
.	2A	.	2cc
=30	=30	=30	=30
1r	2G	2d	2b
.	2c	2e	2a
2r	2B	1d	2g
2D	1A	.	2.f
2AA	.	2.c	.
.	.	.	4e
2C	2G	.	2e
.	.	4B	.
=31	=31	=31	=31
1D	1F	4A	4d
.	.	4G	4c
.	.	2A	2d
2.G	1E	1B	2.e
4F	.	.	4f
4E	2r	1G	1g
4D	.	.	.
2E	2B	.	.
=32	=32	=32	=32
1D	2.d	1A	1f
.	4c	.	.
2E	2B	2G	1r
2F	2A	4F	.
.	.	4D	.
2C	2.G	2E	1r
2BB-	.	2D	.
.	4F	.	.
=33	=33	=33	=33
2C	2E	4C	1r
.	.	2c	.
2GG	2D	.	.
.	.	4B	.
2G	1C	1c	2.g
2E	.	.	.
.	.	.	8fL
.	.	.	8gJ
2F	2c	2A	2a
2G	2B	[2d	[2g
=34	=34	=34	=34
1D	1A	2d]	2g]
.	.	2d	2f
2.E-	2G	2B-	2.g
.	1B-	2G	.
8DL	.	.	8fL
8CJ	.	.	8eJ
2BB-	.	2d	4d
.	.	.	4c
2F	2A	[2c	[2f
=35	=35	=35	=35
1C	1G	4c]	2f]
.	.	4B	.
.	.	2c	2e
2D	2F	4A	2f
.	.	4B	.
1C	2G	2.c	2.e
.	2E	.	.
.	.	4B	4d
2D	2F	4A	[2d
.	.	4G	.
=36	=36	=36	=36
1AA	1E	1A	2d]
.	.	.	2c#i
0Dl	0Dl	0Al	0dl
!!LO:LB:i:g=z
=37||	=37||	=37||	=37||
*>B	*>B	*>B	*>B
*clefF4	*clefGv2	*clefGv2	*clefG2
*k[b-]	*k[]	*k[]	*k[]
*M2/1	*M2/1	*M2/1	*M2/1
*met(C|)	*met(C|)	*met(C|)	*met(C|)
!!section: Agnus Dei II
!!!OMD: Agnus Dei II
0r	0r	1.f	[0d
.	.	4e	.
.	.	4d	.
=38	=38	=38	=38
0r	0r	4f	0d]
.	.	4g	.
.	.	4a	.
.	.	4b-i	.
.	.	2a	.
.	.	2f	.
=39	=39	=39	=39
0r	1.F	0r	[0a
.	4E	.	.
.	4D	.	.
=40	=40	=40	=40
0r	4F	0r	0a]
.	4G	.	.
.	4A	.	.
.	4B	.	.
.	2c	.	.
.	2F	.	.
=41	=41	=41	=41
0r	0G	2r	[0b
.	.	1g	.
.	.	4f	.
.	.	4e	.
=42	=42	=42	=42
0r	0r	2d	1b]
.	.	2g	.
.	.	2e	[1cc
.	.	2f	.
=43	=43	=43	=43
0r	2E	2e	0cc]
.	2F	2a	.
.	2E	1r	.
.	2A	.	.
=44	=44	=44	=44
0r	1D	3d	[0dd
.	.	3e	.
.	.	3f	.
.	1r	3g	.
.	.	3f	.
.	.	3g	.
=45	=45	=45	=45
0r	3D	3f	0dd_
.	3E	3g	.
.	3F	3a	.
.	3G	3b-	.
.	3F	3a	.
.	3G	3b-i	.
=46	=46	=46	=46
0r	3D	3g	0dd]
.	3%2G	2b-i	.
.	.	6a	.
.	3F	3%2a	.
.	3%2B-	.	.
.	.	3g	.
=47	=47	=47	=47
0r	2A	1a	[0cc
.	2G	.	.
.	2E	2r	.
.	[2F	[2a	.
=48	=48	=48	=48
0r	2F]	4a]	0cc]
.	.	4g	.
.	2G	2e	.
.	1A	2f	.
.	.	[2e	.
=49	=49	=49	=49
0r	0G	4e]	[0b
.	.	4f	.
.	.	2.g	.
.	.	4f	.
.	.	2d	.
=50	=50	=50	=50
0r	1r	2e	0b]
.	.	1d	.
.	1G	.	.
.	.	[2g	.
=51	=51	=51	=51
0r	1D	2g]	1a
.	.	2f	.
.	2G	2g	2b
.	2F	2a	[2cc
=52	=52	=52	=52
0r	2E	2g	4cc]
.	.	.	4b
.	[1.F	2.cc	4a
.	.	.	4g
.	.	.	4f
.	.	4b	4e
.	.	4a	[2a
.	.	4g	.
=53	=53	=53	=53
0r	2F]	2f	4a]
.	.	.	4g
.	2C	2.e	1g
.	1D	.	.
.	.	4d	.
.	.	[2d	2f
=54	=54	=54	=54
0r	1E	2d]	1g
.	.	2c	.
.	1D	2d	1f
.	.	4f	.
.	.	4e	.
=55	=55	=55	=55
0r	2F	4d	1r
.	.	4c	.
.	2E	1c	.
.	1D	.	2r
.	.	2B	2d
=56	=56	=56	=56
*	*M3/3%2	*	*
*	*met(3)	*	*
*	*rscale:3/2	*	*
0r	3%2C	1c	2.e
.	3D	.	.
.	.	.	4f
.	3E	1r	[1g
.	3F	.	.
.	3G	.	.
=57	=57	=57	=57
0r	3E	0r	0g]
.	3G	.	.
.	3A	.	.
.	3B	.	.
.	3c	.	.
.	3B	.	.
=58	=58	=58	=58
0r	3%2d	0r	1f
.	3A	.	.
.	3.c	.	1e
.	6B	.	.
.	6A	.	.
.	6G	.	.
*	*rscale:1	*	*
=59	=59	=59	=59
*	*M2/1	*	*
*	*met(C|)	*	*
0r	2.F	0r	2r
.	.	.	1a
.	4G	.	.
.	2A	.	.
.	2B-i	.	4g
.	.	.	4f
=60	=60	=60	=60
0r	2G	0r	1e
.	2.c	.	.
.	.	.	1d
.	8B-iL	.	.
.	8cJ	.	.
.	4B-i	.	.
.	8AL	.	.
.	8GJ	.	.
=61	=61	=61	=61
0r	2F	2.f	2.a
.	2D	.	.
.	.	4g	4b
.	2C	2a	2cc
.	[2BB-	2b-i	[2dd
=62	=62	=62	=62
0r	2BB-]	2g	4dd]
.	.	.	4cc
.	2F	2.a	2a
.	2E	.	1b-
.	.	4g	.
.	2G	[2g	.
=63	=63	=63	=63
0r	1D	2g]	1a
.	.	2f#i	.
.	2r	1g	1r
.	2G	.	.
=64	=64	=64	=64
0r	2A	2r	0r
.	2B	2g	.
.	2c	2a	.
.	2G	2b	.
=65	=65	=65	=65
0r	2.A	1cc	0r
.	4B	.	.
.	4c	[1a	.
.	4d	.	.
.	[2c	.	.
=66	=66	=66	=66
0r	2c]	2a]	0r
.	2B	2g	.
.	2A	2f	.
.	[2G	2e	.
=67	=67	=67	=67
0r	2G]	1d	0r
.	2F	.	.
.	1E	1c	.
=68	=68	=68	=68
0r	1D	1f	2r
.	.	.	2a
.	2r	1e	2b
.	2A	.	2cc
=69	=69	=69	=69
0r	2.B	2.d	0dd
.	4c	4e	.
.	2d	2f	.
.	2G	[2g	.
=70	=70	=70	=70
0r	1d	2g]	1dd
.	.	2f#i	.
.	1G	1g	2.b
.	.	.	4a
=71	=71	=71	=71
0r	2.d	0r	2b
.	.	.	2a
.	4c	.	.
.	4B	.	2g
.	4A	.	.
.	[2d	.	2f
=72	=72	=72	=72
0r	2d]	0r	1e
.	2c	.	.
.	2d	.	1d
.	2B	.	.
=73	=73	=73	=73
0r	2.c	2.a	0r
.	4B	4g	.
.	2c	2a	.
.	2B	2g	.
=74	=74	=74	=74
0r	2A	2f	0r
.	2G	2e	.
.	1F	4d	.
.	.	4c	.
.	.	2d	.
=75	=75	=75	=75
0r	1E	1e	0g
.	2C	1r	.
.	[2C	.	.
=76	=76	=76	=76
0r	4C]	2.g	0e
.	4D	.	.
.	4E	.	.
.	4F	4a	.
.	2G	2b	.
.	2C	[2cc	.
=77	=77	=77	=77
0r	1F	4cc]	0a
.	.	4b	.
.	.	4a	.
.	.	4g	.
.	1r	2.f	.
.	.	4g	.
=78	=78	=78	=78
0r	1r	4a	0f
.	.	4g	.
.	.	1a	.
.	1D	.	.
.	.	4g	.
.	.	4f	.
=79	=79	=79	=79
0r	1C	1e	1.cc
.	[1G	[1d	.
.	.	.	4b
.	.	.	4a
=80	=80	=80	=80
0r	1G]	1d]	4b
.	.	.	4a
.	.	.	4g
.	.	.	4f
.	1A	1c	2e
.	.	.	[2a
=81	=81	=81	=81
0r	1F	1.cc	2a]
.	.	.	4g
.	.	.	4f
.	1r	.	2a
.	.	2b	2g
=82	=82	=82	=82
0r	0r	2a	2f
.	.	2.b	2.g
.	.	4a	4f
.	.	[2dd	2d
=83	=83	=83	=83
0r	1A	2dd]	1e
.	.	2cc	.
.	2B-i	2dd	1d
.	2G	2b	.
=84	=84	=84	=84
0r	2F	2a	2r
.	2E	2g	2b
.	2F	2cc	2a
.	2G	2b	2g
=85	=85	=85	=85
0r	2F	2a	2cc
.	2G	2dd	2b
.	2A	2cc	2a
.	2B	2b	2dd
=86	=86	=86	=86
0r	2c	2a	2cc
.	2G	2g	1dd
.	1A	2f	.
.	.	2e	2cc
=87	=87	=87	=87
0r	4B-	2d	2dd
.	4A	.	.
.	4G	1g	2b
.	4F	.	.
.	2G	.	2a
.	2D	2f	[2dd
=88	=88	=88	=88
0r	1A	1e	2dd]
.	.	.	2cc#i
.	1D	[1dl	[1dd
=89	=89	=89	=89
0r	1G	0d_	2dd]
.	.	.	4cc
.	.	.	4b
.	2F	.	2a
.	[2G	.	[2b-i
=90	=90	=90	=90
0r	4G]	0d_	4b-]
.	4F	.	4a
.	2G	.	4b-i
.	.	.	4a
.	2.D	.	2.f
.	4E	.	4g
=91	=91	=91	=91
0r	2F	0d_	2a
.	2G	.	2b-i
.	[1Dl	.	2.a
.	.	.	4f
=92	=92	=92	=92
0r	0D]	0d]	0fl
!!LO:LB:i:g=z
=93||	=93||	=93||	=93||
*>C	*>C	*>C	*>C
*clefF4	*clefGv2	*clefGv2	*clefG2
*k[b-]	*k[]	*k[]	*k[]
*M3/1	*M3/1	*M3/1	*M3/1
*met(O|)	*met(O|)	*met(O|)	*met(O|)
!!section: Qui tollis
!!!OMD: Qui tollis
0.r	0.D	0.r	0.r
=94	=94	=94	=94
0.r	2.G	0.r	0.d
.	4A	.	.
.	2B	.	.
.	2.B	.	.
.	4A	.	.
.	4G	.	.
.	4F	.	.
=95	=95	=95	=95
0.r	1E	0.r	2.g
.	.	.	4a
.	1.G	.	2b
.	.	.	2.b
.	.	.	4a
.	4A	.	4g
.	4B	.	4f
=96	=96	=96	=96
0.r	2.c	0.r	1e
.	8BL	.	.
.	8cJ	.	.
.	4B	.	1.g
.	4A	.	.
.	2c	.	.
.	1B	.	.
.	.	.	4a
.	.	.	4b
=97	=97	=97	=97
0.r	1A	0.r	2.cc
.	.	.	8bL
.	.	.	8ccJ
.	2d	.	4b
.	.	.	4a
.	2c	.	1a
.	1B	.	.
.	.	.	2g#i
=98	=98	=98	=98
0.r	0A	0.r	1a
.	.	.	1r
.	1r	.	1a
=99	=99	=99	=99
0.r	1A	0.r	1.cc
.	1.c	.	.
.	.	.	4b
.	.	.	4a
.	.	.	2.g
.	4B	.	.
.	4A	.	4a
=100	=100	=100	=100
0.r	2G	0.r	2b
.	4F	.	1a
.	4E	.	.
.	4F	.	.
.	4G	.	.
.	2E	.	2g
.	2D	.	4f
.	.	.	4e
.	2d	.	4f
.	.	.	4g
=101	=101	=101	=101
0.r	2c	0.r	2e
.	2d	.	2d
.	2A	.	1f
.	2.d	.	.
.	.	.	1e
.	4c#i	.	.
.	4c#i	.	.
.	4B	.	.
=102	=102	=102	=102
0.r	1d	0.r	1d
.	1G	.	2r
.	.	.	2g
.	2A	.	2f
.	2G	.	2g
=103	=103	=103	=103
0.r	2B	0.r	2d
.	2c	.	2.g
.	1A	.	.
.	.	.	4f#i
.	.	.	4f#i
.	.	.	4e
.	1G	.	1g
=104	=104	=104	=104
0.r	2r	0.r	1c
.	2A	.	.
.	2B	.	2d
.	1c	.	2c
.	.	.	2e
.	2d	.	2f
=105	=105	=105	=105
0.r	2B	0.r	1g
.	2.c	.	.
.	.	.	2a
.	4d	.	.
.	2e	.	2g
.	4.d	.	2b
.	8c	.	.
.	2A	.	2cc
=106	=106	=106	=106
0.r	4G	0.r	2dd
.	4A	.	.
.	4B	.	1g
.	8AL	.	.
.	8BJ	.	.
.	4c	.	.
.	4B	.	.
.	2e	.	1cc
.	1d	.	.
.	.	.	2b
=107	=107	=107	=107
0.r	1c	0.r	0cc
.	1r	.	.
.	1d	.	1r
=108	=108	=108	=108
0.r	1e	0.r	1g
.	2d	.	1a
.	2c	.	.
.	2B	.	2g
.	2d	.	2f
=109	=109	=109	=109
0.r	2c	0.r	2e
.	2B	.	2g
.	4A	.	2f
.	4B	.	.
.	4c	.	2e
.	4d	.	.
.	2B	.	4d
.	.	.	4e
.	2A	.	4f
.	.	.	4g
=110	=110	=110	=110
0.r	2G	0.r	2e
.	2B	.	2d
.	4A	.	2c
.	4G	.	.
.	1c	.	2e
.	.	.	1d
.	2B	.	.
=111	=111	=111	=111
0.r	2c	0.r	2c
.	4d	.	2f
.	4c	.	.
.	4B	.	2g
.	4A	.	.
.	2c	.	1a
.	1B	.	.
.	.	.	2g#i
=112	=112	=112	=112
0.r	0A	0.r	0a
.	1r	.	1r
=113	=113	=113	=113
*M2/1	*M2/1	*M2/1	*M2/1
*met(C|)	*met(C|)	*met(C|)	*met(C|)
!!LO:TX:X=-40:Z=8:t=[miserere nobis]
[0D	[0d	[0f	[0a
=114	=114	=114	=114
1D]	1d]	1f]	1a]
1D	2A	1f	1a
.	[2d	.	.
=115	=115	=115	=115
0D	2d]	0f	[0a
.	4c	.	.
.	4B	.	.
.	2.A	.	.
.	4B	.	.
=116	=116	=116	=116
0AA	[0c	[0e	0a]
=117	=117	=117	=117
1.C	1c]	0e]	1g
.	[1G	.	1cc
4BB-	.	.	.
4AA	.	.	.
=118	=118	=118	=118
1GG	1G]	1e	1b
[1FF	1A	[1f	[1a
=119	=119	=119	=119
1FF]	1.c	2f]	1a]
.	.	4e	.
.	.	4d	.
1C	.	2e	1g
.	2B	[2c	.
=120	=120	=120	=120
1D	2A	4c]	1f
.	.	4B	.
.	4G	4A	.
.	4F	4B	.
1C	2G	1c	[1e
.	[2A	.	.
=121	=121	=121	=121
0D	4A]	[0A	2e]
.	4G	.	.
.	4F	.	2d
.	4E	.	.
.	1F	.	[1d
=122	=122	=122	=122
[0AA	[0E	0A]	2d]
.	.	.	4c
.	.	.	4B
.	.	.	1c
=123	=123	=123	=123
0AA]	0E]	[0A	[0c
=124	=124	=124	=124
1r	1F	0A]	0c]
1AA	1E	.	.
=125	=125	=125	=125
0BB-	1D	1F	1.f
.	2d	1G	.
.	[2d	.	4e
.	.	.	4d
=126	=126	=126	=126
1AA	2d]	0A	1e
.	2c	.	.
1D	1d	.	2d
.	.	.	[2f
=127	=127	=127	=127
2.D	1B-	1d	2f]
.	.	.	2g
4E	.	.	.
1F	[1A	[1c	2.a
.	.	.	4b
=128	=128	=128	=128
0r	2A]	2c]	2cc
.	2.G	2d	2.b
.	.	2e	.
.	4F	.	4a
.	2D	2f	[2dd
=129	=129	=129	=129
0r	1A	2.e	2dd]
.	.	.	2cc
.	.	4f	.
.	2G	2g	2b
.	2A	2c	[2a
=130	=130	=130	=130
1D	1F	2d	2a]
.	.	1f	4g
.	.	.	4f
1C	1c	.	1g
.	.	2e	.
=131	=131	=131	=131
1D	1F	1f	4f
.	.	.	4g
.	.	.	4a
.	.	.	8gL
.	.	.	8aJ
4BB-	1F	2.d	2b-
4C	.	.	.
4D	.	.	2f
4E-i	.	8cL	.
.	.	8dJ	.
=132	=132	=132	=132
2C	2E	2e	4g
.	.	.	4a
2BB-	4F	2.d	4b-i
.	4G	.	4cc
2F	4A	.	2a
.	4B	4c	.
2C	2c	[2c	[2g
=133	=133	=133	=133
1D	2A	2c]	4g]
.	.	.	4f
.	2F	2B	1f
1C	1G	1c	.
.	.	.	2e
=134	=134	=134	=134
1D	1F	1A	1f
1F	1D	[1d	[1a
=135	=135	=135	=135
0E	0G	2d]	2a]
.	.	4c#i	2g
.	.	4B	.
.	.	1c#i	[1g
=136	=136	=136	=136
0D	0A	1.d	2g]
.	.	.	4f#i
.	.	.	4e
.	.	.	1f#i
.	.	2c	.
=137	=137	=137	=137
1r	1G	2.B	0g
.	.	4A	.
1G	1E	1B	.
=138	=138	=138	=138
1A	1F	1A	1cc
2G	1G	2r	1b
2E	.	[2e	.
=139	=139	=139	=139
2.F	1r	2e]	1.a
.	.	4d	.
4E	.	4c	.
1F	1A	1d	.
.	.	.	4g
.	.	.	4f
=140	=140	=140	=140
1.E	1.B	[0el	[0gl
2C	4A	.	.
.	4B	.	.
=141	=141	=141	=141
[0Cl	1.c	0e_	0g_
.	4B	.	.
.	4A	.	.
=142	=142	=142	=142
0C_	1G	0e_	0g_
.	2.c	.	.
.	4B	.	.
=143	=143	=143	=143
0C]	0cl	0e]	0g]
!!LO:LB:i:g=z
=144||	=144||	=144||	=144||
*>D	*>D	*>D	*>D
*clefF4	*clefGv2	*clefGv2	*clefG2
*k[b-]	*k[]	*k[]	*k[]
*M2/1	*M2/1	*M2/1	*M2/1
*met(C|)	*met(C|)	*met(C|)	*met(C|)
!!section: Agnus Dei III
!!!OMD: Agnus Dei III
0r	0r	1D	0r
.	.	4D	.
.	.	4E	.
.	.	4F	.
.	.	4G	.
=145	=145	=145	=145
0r	1D	2A	0r
.	.	2.F	.
.	4D	.	.
.	4E	4G	.
.	4F	2A	.
.	4G	.	.
=146	=146	=146	=146
0r	2A	0D	0r
.	2.F	.	.
.	4G	.	.
.	2A	.	.
=147	=147	=147	=147
0r	1D	2r	0r
.	.	2A	.
.	2r	2B	.
.	2A	2c	.
=148	=148	=148	=148
0r	2.B	2d	1d
.	.	2G	.
.	4c	.	.
.	[1d	2.B-	4d
.	.	.	4e
.	.	.	4f
.	.	4A	4g
=149	=149	=149	=149
0r	1d]	2F	2a
.	.	2.D	2.f
.	1d	.	.
.	.	4E	4g
.	.	2F	2a
=150	=150	=150	=150
0r	1B	2G	1d
.	.	2d	.
.	1A	2e	2r
.	.	2f	2a
=151	=151	=151	=151
0r	2G	1e	2b
.	2A	.	2cc
.	2.B	1d	[1dd
.	4c	.	.
=152	=152	=152	=152
0r	4d	1G	1dd]
.	4c	.	.
.	4B	.	.
.	4A	.	.
.	1B	2r	1dd
.	.	2d	.
=153	=153	=153	=153
0r	1.A	2e	1.cc
.	.	2f	.
.	.	2e	.
.	2G	[2e	2b
=154	=154	=154	=154
0r	1F	4e]	1a
.	.	4d	.
.	.	4d	.
.	.	8cL	.
.	.	8dJ	.
.	2E	2e	2g
.	2F	2c	[2a
=155	=155	=155	=155
0r	2G	2B	4a]
.	.	.	4g
.	2C	2c	1g
.	1D	1A	.
.	.	.	2f#i
=156	=156	=156	=156
[0GG	2r	1G	1g
.	1d	.	.
.	.	2.B	1r
.	2e	.	.
.	.	4c	.
=157	=157	=157	=157
0GG]	2d	2d	1.g
.	2.B	2.G	.
.	4c	4A	.
.	2d	4B	[2dd
.	.	4c	.
=158	=158	=158	=158
1.GG	1.G	0d	4dd]
.	.	.	4cc
.	.	.	4b
.	.	.	4a
.	.	.	2b-i
[2D	[2A	.	2a
=159	=159	=159	=159
0D_	4A]	1d	2f
.	4G	.	.
.	4F	.	2.a
.	4E	.	.
.	1D	[1f	.
.	.	.	4g
.	.	.	4f
.	.	.	4e
=160	=160	=160	=160
1.D]	2r	0f_	1d
.	1d	.	.
.	.	.	1r
[2D	4c	.	.
.	4B	.	.
=161	=161	=161	=161
1D]	2A	1f]	1a
.	2d	.	.
[1E	2B	1e	2.g
.	2c	.	.
.	.	.	4a
=162	=162	=162	=162
0E_	2.G	2.E	2b
.	.	.	2cc
.	4A	4F	.
.	2B	2G	1g
.	2c	[2C	.
=163	=163	=163	=163
1E]	2.G	4C]	1r
.	.	4D	.
.	.	4E	.
.	4F	4F	.
1E	4E	1G	1g
.	4D	.	.
.	[2C	.	.
=164	=164	=164	=164
[0F	2C]	2.c	2g
.	1c	.	2.a
.	.	4B	.
.	.	4A	.
.	.	4G	4b
.	[2A	[2F	[2cc
=165	=165	=165	=165
0F_	2A]	4F]	2cc]
.	.	4E	.
.	2d	4F	1a
.	.	4G	.
.	2c	2A	.
.	2d	2D	2dd
=166	=166	=166	=166
2F]	2A	2r	2cc
1.F	2d	2D	2dd
.	2c	1A	2a
.	2A	.	2cc
=167	=167	=167	=167
[0G	4d	2G	2b
.	4c	.	.
.	4B	2.B	1dd
.	4A	.	.
.	4G	.	.
.	4F	4A	.
.	[2E	2B	[2g
=168	=168	=168	=168
0G]	2E]	2.G	2g]
.	4D	.	4f
.	4C	4A	4e
.	2BB	2B	2d
.	2C	2E	2e
=169	=169	=169	=169
1.G	2BB	1B	2d
.	1E	.	1g
.	.	2B	.
[2F	2F	[2A	[2a
=170	=170	=170	=170
0F_	1D	2A]	2a]
.	.	2.d	2.f
.	2r	.	.
.	.	4c	4g
.	[2D	2A	2a
=171	=171	=171	=171
1.F]	4D]	1d	3d
.	4E	.	.
.	.	.	3f
.	2F	.	.
.	.	.	3g
.	2D	[1d	2.a
[2F	[2F	.	.
.	.	.	4g
=172	=172	=172	=172
1F]	2F]	2d]	4a
.	.	.	4b
.	2C	2.c	1cc
[1E	2.G	.	.
.	.	4d	.
.	.	[2e	[2b
.	4F	.	.
=173	=173	=173	=173
0E_	4E	4e]	4b]
.	4D	4f	4a
.	1C	2.g	2.g
.	.	4f	4f
.	[2C	4e	[2e
.	.	4d	.
=174	=174	=174	=174
1E]	2C]	2c	4e]
.	.	.	4d
.	1G	2.e	1c
[1E	.	.	.
.	.	4d	.
.	2E	4c	[2g
.	.	4B	.
=175	=175	=175	=175
2E]	2G	2c	2g]
[1.D	2.A	2.d	1f
.	4G	4c	.
.	4F	[2A	4e
.	4E	.	4d
=176	=176	=176	=176
0D_	2D	4A]	1f
.	.	4G	.
.	2.F	4F	.
.	.	4E	.
.	.	2D	2r
.	4G	.	.
.	4A	[2d	[2f
.	4B-i	.	.
=177	=177	=177	=177
2D]	2A	2d]	4f]
.	.	.	4g
1.D	2F	4c	1a
.	.	4B	.
.	2.F	2.A	.
.	.	.	4g
.	8EL	4B	4f
.	8FJ	.	.
=178	=178	=178	=178
0C	2G	1c	2e
.	2.E	.	1g
.	.	2.G	.
.	4F	.	.
.	[2G	.	4f
.	.	4A	4e
=179	=179	=179	=179
0r	2G]	2B	2d
.	2E	1c	2c
.	2F	.	1d
.	2G	2B	.
=180	=180	=180	=180
0G	1.C	0c	0e
.	[2C	.	.
=181	=181	=181	=181
1.G	4C]	0r	0r
.	4D	.	.
.	4E	.	.
.	4F	.	.
.	2E	.	.
[2F	2F	.	.
=182	=182	=182	=182
1.F]	2D	0r	0r
.	2.A	.	.
.	4B	.	.
[2F	4c	.	.
.	4d	.	.
=183	=183	=183	=183
1F]	2c	0r	0r
.	2d	.	.
*	*M3/3%2	*	*
*	*met(O3)	*	*
*	*rscale:3/2	*	*
!	!LO:TX:Z=8:X=-40:t=O3 mensuration	!	!
[1E	3%2G	.	.
.	3c	.	.
=184	=184	=184	=184
1E]	3B	0r	0r
.	3c	.	.
.	3B	.	.
[1E	3%2G	.	.
.	3G	.	.
=185	=185	=185	=185
2E]	3.B	0r	0r
[1.D	6c	.	.
.	[3d	.	.
.	3d]	.	.
.	3%2A	.	.
=186	=186	=186	=186
2D]	3B-	0r	0r
.	3A	.	.
1.D	.	.	.
.	[3F	.	.
.	3F]	.	.
.	3.A	.	.
.	6Bni	.	.
*	*rscale:1	*	*
=187	=187	=187	=187
*	*M2/1	*	*
*	*met(C|)	*	*
0C	1c	1e	0r
*	*	*M3/3%2	*
*	*	*met(O3)	*
*	*	*rscale:3/2	*
!	!	!LO:TX:Z=8:X=-40:t=O3 mensuration	!
.	1r	3d	.
.	.	3c	.
.	.	6B	.
.	.	6A	.
=188	=188	=188	=188
1.C	0r	3G	0r
.	.	3A	.
.	.	3E	.
.	.	3%2A	.
[2D	.	.	.
.	.	3B	.
=189	=189	=189	=189
1.D]	0r	3A	0r
.	.	3.d	.
.	.	6e	.
.	.	3f	.
.	.	3%2d	.
[2D	.	.	.
=190	=190	=190	=190
1D]	0r	3.f	1r
.	.	6e	.
.	.	3d	.
*	*	*	*M3/3%2
*	*	*	*met(O3)
*	*	*	*rscale:3/2
!	!	!	!LO:TX:Z=8:X=-40:t=O3 mensuration
[1F	.	1c	3%2.a
*	*	*rscale:1	*
=191	=191	=191	=191
*	*	*M2/1	*
*	*	*met(C|)	*
1F]	0r	0r	3g
.	.	.	3a
.	.	.	3b
[1F	.	.	3%2cc
.	.	.	3a
=192	=192	=192	=192
2F]	0r	0r	3%2cc
[1.E	.	.	.
.	.	.	[3cc
.	.	.	3cc]
.	.	.	3%2b
=193	=193	=193	=193
2E]	0r	0r	3g
.	.	.	3.g
1.E	.	.	.
.	.	.	6f
.	.	.	6e
.	.	.	6d
.	.	.	3.c#i
.	.	.	6B
*	*	*	*rscale:1
=194	=194	=194	=194
*	*	*	*M2/1
*	*	*	*met(C|)
[0D	2r	1A	2d
.	1d	.	2.f
.	.	2.B-i	.
.	.	.	4g
.	4c	.	4a
.	4B-i	4A	4b-i
=195	=195	=195	=195
0D]	4c	0d	2a
.	4B-i	.	.
.	4A	.	1g
.	4G	.	.
.	1A	.	.
.	.	.	2f#i
=196	=196	=196	=196
0r	2.G	2.B	2.g
.	4A	4c	8fL
.	.	.	8eJ
.	2B-	2d	2d
.	[2A	2e	[2c
=197	=197	=197	=197
1r	4A]	2.c	2c]
.	4G	.	.
.	2F	.	1f
.	.	8AL	.
.	.	8BJ	.
1C	1G	2.c	.
.	.	.	2e
.	.	4B	.
=198	=198	=198	=198
1D	2F	4A	1f
.	.	4G	.
.	2D	2F	.
1E	1C	2.G	1r
.	.	8FL	.
.	.	8EJ	.
=199	=199	=199	=199
[0F	0BB-	0D	0r
=200	=200	=200	=200
*	*	*M3/3%2	*
*	*	*met(O3)	*
*	*	*rscale:3/2	*
!	!	!LO:TX:Z=8:X=-40:t=O3 mensuration	!
0F]	0r	3A	0r
.	.	3B	.
.	.	3c	.
.	.	3d	.
.	.	3c	.
.	.	3d	.
=201	=201	=201	=201
0E	0r	3G	0r
.	.	3A	.
.	.	3B	.
.	.	3c	.
.	.	3B	.
.	.	3c	.
*	*	*rscale:1	*
=202	=202	=202	=202
*	*	*M2/1	*
*	*	*met(C|)	*
1.D	0r	2.F	0r
.	.	8GL	.
.	.	8AJ	.
.	.	2B-	.
2C	.	[2A	.
=203	=203	=203	=203
2D	0r	4A]	0r
.	.	4D	.
4C	.	1G	.
4BB-	.	.	.
1AA	.	.	.
.	.	2F#i	.
=204	=204	=204	=204
1GG	0r	1.G	0r
2.C	.	.	.
.	.	2A	.
4D	.	.	.
=205	=205	=205	=205
2E	0r	2G	0r
2F	.	1c	.
1D	.	.	.
.	.	2B	.
=206	=206	=206	=206
1C	1e	1c	1g
1r	1d	1r	2a
.	.	.	2b
=207	=207	=207	=207
0r	2c	0r	0cc
.	2.A	.	.
.	4B	.	.
.	2c	.	.
=208	=208	=208	=208
0r	2A	0r	1cc
.	2.F	.	.
.	.	.	[1a
.	4G	.	.
.	4A	.	.
.	4B	.	.
=209	=209	=209	=209
0r	4c	0r	2a]
.	4d	.	.
.	2e	.	2g
.	2d	.	2f
.	[2c	.	2e
=210	=210	=210	=210
0r	2c]	0r	1d
.	2B	.	.
.	1c	.	[1c
=211	=211	=211	=211
0r	1.A	0r	1c]
.	.	.	2c
.	2G	.	[2d
=212	=212	=212	=212
0r	2F	0r	4d]
.	.	.	4c
.	2E	.	1c
.	1D	.	.
.	.	.	2B
=213	=213	=213	=213
0r	[0C	2.e	1c
.	.	4d	.
.	.	4c	1g
.	.	4B	.
.	.	[2c	.
=214	=214	=214	=214
1r	0C]	2c]	1e
.	.	4B	.
.	.	4A	.
1C	.	2G	1e
.	.	[2E	.
=215	=215	=215	=215
1AA	1r	2E]	1.a
.	.	2F	.
1AA	1c	2E	.
.	.	2C	2g
=216	=216	=216	=216
1.D	1A	2D	1.f
.	.	2.F	.
.	1A	.	.
.	.	4G	.
2C	.	2A	2e
=217	=217	=217	=217
2.BB-	1.d	1B-	2d
.	.	.	2.f
4AA	.	.	.
2BB-	.	1r	.
.	.	.	4g
2C	2c	.	2e
=218	=218	=218	=218
1GG	1B-	0d	2d
.	.	.	1g
1D	1A	.	.
.	.	.	2f#i
=219	=219	=219	=219
2E	1G	2B	1g
2C	.	2c	.
1D	1F	1A	1r
=220	=220	=220	=220
1GG	1B	1G	1g
2.D	2A	1A	[1f
.	[2d	.	.
4C	.	.	.
=221	=221	=221	=221
2BB-	2d]	4B-	2f]
.	.	4A	.
2C	2.c	4G	2e
.	.	4F	.
1GG	.	[1G	1d
.	4B	.	.
.	4B	.	.
.	4A	.	.
=222	=222	=222	=222
1.C	[0c	1G]	1c
.	.	1E	1g
4D	.	.	.
4E	.	.	.
=223	=223	=223	=223
1F	1c]	2.A	1a
.	.	4G	.
[1BB-	[1d	4F	[1b-
.	.	4E	.
.	.	[2D	.
=224	=224	=224	=224
2BB-]	1d]	2D]	1b-]
2C	.	2G	.
2D	1r	2.F	[1a
2E	.	.	.
.	.	4G	.
=225	=225	=225	=225
1F	1r	1A	2a]
.	.	.	2g
1BB-	1D	2B-i	1f
.	.	2d	.
=226	=226	=226	=226
0r	1G	2e-i	1g
.	.	1d	.
.	1A	.	1e
.	.	2c#i	.
=227	=227	=227	=227
1.BB-	0B-	[0d	1.d
4AA	.	.	2e
4GG	.	.	.
=228	=228	=228	=228
1FF	1.A	1d]	1f
1AA	.	1c	1e
.	2G	.	.
=229	=229	=229	=229
1BB-	1F	0B-	2d
.	.	.	2f
1GG	1G	.	2e-
.	.	.	[2d
=230	=230	=230	=230
0AA	0E	[0Al	2d]
.	.	.	4c#i
.	.	.	4B
.	.	.	1c#i
=231	=231	=231	=231
0Dl	0Dl	0A]	0dl
==	==	==	==
*-	*-	*-	*-
!!!RDF**kern: l=long note in original notation
!!!RDF**kern: i=editorial accidental
!!!RDF**kern: V=start of tuplet marker
!!!RDF**kern: Z=end of tuplet marker
!!!ENC:	Joel Chapman 2013/09/04
!!!END:	2013/09/04/
!!!EED:	Jesse Rodin
!!!EEV:	2014/01/04/
!!!ONB:	Translated from MusicXML and edited on 2014/01/04/ by Craig Sapp
!!muse2ps: T^@{OPR}^u^@{ONM}{. }@{OTL}^C^@{COM}^i2I150v85,85,85,150Q8c145
